X:1652
T:Drops Of Brandy. JMT089
O:england
M:9/8
L:1/8
S:J.Moore,Tyneside,1841.(64b)
R:Slip Jig
A:Northumbria
N:MS had a time signature of 2/4. However, the tune was actually entered
N:with all the "correct" notes in the standard fashion for a slip jig
N:except for the bar lines being entered as if it were a 6/8 tune
K:G
GAB BAB BAB|GAB BAB d2g|GAB BAB BAB|A2A ABG FED:|
|:GBd gdB gdB|GBdgdBd2g|GBd gdB gdB|A2A ABG FED:|]


